svgs/light/robot-astromech.svg

<svg xmlns="http://www.w3.org/2000/svg" viewBox="0 0 512 512"><!--! Font Awesome Pro 6.6.0 by @fontawesome - https://fontawesome.com License - https://fontawesome.com/license (Commercial License) Copyright 2024 Fonticons, Inc. --><path d="M256 0C176.5 0 112 64.5 112 144l0 16-16 0c-35.3 0-64 28.7-64 64l0 196.2L2.4 479.5C.8 482.6 0 486 0 489.5C0 501.9 10.1 512 22.5 512L128 512c8.8 0 16-7.2 16-16l0-89.4 36.7 36.7c3 3 7.1 4.7 11.3 4.7l128 0c4.2 0 8.3-1.7 11.3-4.7L368 406.6l0 89.4c0 8.8 7.2 16 16 16l105.5 0c12.4 0 22.5-10.1 22.5-22.5c0-3.5-.8-6.9-2.4-10L480 420.2 480 224c0-35.3-28.7-64-64-64l-16 0 0-16C400 64.5 335.5 0 256 0zM400 192l16 0c17.7 0 32 14.3 32 32l0 200c0 2.5 .6 4.9 1.7 7.2L474.1 480 400 480l0-112 0-176zm-32 0l0 169.4L313.4 416l-114.7 0L144 361.4 144 192l224 0zm-256 0l0 176 0 112-74.1 0 24.4-48.8c1.1-2.2 1.7-4.7 1.7-7.2l0-200c0-17.7 14.3-32 32-32l16 0zm32-48c0-61.9 50.1-112 112-112s112 50.1 112 112l0 16-224 0 0-16zm80-16a32 32 0 1 0 0-64 32 32 0 1 0 0 64zm80 0a16 16 0 1 0 0-32 16 16 0 1 0 0 32zM192 240c0 8.8 7.2 16 16 16l96 0c8.8 0 16-7.2 16-16s-7.2-16-16-16l-96 0c-8.8 0-16 7.2-16 16zm0 64c0 8.8 7.2 16 16 16l96 0c8.8 0 16-7.2 16-16s-7.2-16-16-16l-96 0c-8.8 0-16 7.2-16 16z"/></svg>

<svg xmlns="http://www.w3.org/2000/svg" viewBox="0 0 512 512"><!--! Font Awesome Pro 6.4.2 by @fontawesome - https://fontawesome.com License - https://fontawesome.com/license (Commercial License) Copyright 2023 Fonticons, Inc. --><path d="M256 0C176.5 0 112 64.5 112 144v16H96c-35.3 0-64 28.7-64 64V420.2L2.4 479.5C.8 482.6 0 486 0 489.5C0 501.9 10.1 512 22.5 512H128c8.8 0 16-7.2 16-16V406.6l36.7 36.7c3 3 7.1 4.7 11.3 4.7H320c4.2 0 8.3-1.7 11.3-4.7L368 406.6V496c0 8.8 7.2 16 16 16H489.5c12.4 0 22.5-10.1 22.5-22.5c0-3.5-.8-6.9-2.4-10L480 420.2V224c0-35.3-28.7-64-64-64H400V144C400 64.5 335.5 0 256 0zM400 192h16c17.7 0 32 14.3 32 32V424c0 2.5 .6 4.9 1.7 7.2L474.1 480H400V368 192zm-32 0V361.4L313.4 416H198.6L144 361.4V192H368zm-256 0V368 480H37.9l24.4-48.8c1.1-2.2 1.7-4.7 1.7-7.2V224c0-17.7 14.3-32 32-32h16zm32-48c0-61.9 50.1-112 112-112s112 50.1 112 112v16H144V144zm80-16a32 32 0 1 0 0-64 32 32 0 1 0 0 64zm80 0a16 16 0 1 0 0-32 16 16 0 1 0 0 32zM192 240c0 8.8 7.2 16 16 16h96c8.8 0 16-7.2 16-16s-7.2-16-16-16H208c-8.8 0-16 7.2-16 16zm0 64c0 8.8 7.2 16 16 16h96c8.8 0 16-7.2 16-16s-7.2-16-16-16H208c-8.8 0-16 7.2-16 16z"/></svg>
